files/opera-browser.svg

<svg clip-rule="evenodd" fill-rule="evenodd" stroke-linejoin="round" stroke-miterlimit="2" viewBox="0 0 560 400" xmlns="http://www.w3.org/2000/svg" xmlns:xlink="http://www.w3.org/1999/xlink"><linearGradient id="a" gradientTransform="matrix(0 77.9173 -77.9173 0 37.2308 1.65881)" gradientUnits="userSpaceOnUse" x1="0" x2="1" y1="0" y2="0"><stop offset="0" stop-color="#ee2834"/><stop offset=".6" stop-color="#ed1c2a"/><stop offset=".9" stop-color="#bd2025"/><stop offset="1" stop-color="#a61e22"/></linearGradient><linearGradient id="b" gradientTransform="matrix(0 68.914 -68.914 0 57.4176 6.25129)" gradientUnits="userSpaceOnUse" x1="0" x2="1" y1="0" y2="0"><stop offset="0" stop-color="#9b1b1f"/><stop offset=".3" stop-color="#c72226"/><stop offset=".6" stop-color="#ef4042"/><stop offset=".7" stop-color="#f04d4f"/><stop offset="1" stop-color="#f04d4f"/></linearGradient><path d="m0 0h560v400h-560z" fill="none"/><g transform="matrix(1.88339 0 0 1.88339 198.68 83.8427)"><path d="m30.702 63.202c-4.444-5.246-7.323-13.003-7.519-21.707-.001-.023-.001-1.871 0-1.894.196-8.704 3.075-16.46 7.518-21.707 5.768-7.489 14.34-12.237 23.914-12.237 5.888 0 11.399 1.798 16.111 4.925-7.076-6.332-16.407-10.194-26.64-10.232-.051 0-.101-.001-.152-.001-22.202 0-40.199 17.997-40.199 40.198 0 21.559 16.972 39.154 38.284 40.153.635.03 1.273.047 1.915.047 10.292 0 19.678-3.87 26.789-10.231-4.711 3.125-10.22 4.923-16.108 4.923-9.574 0-18.146-4.748-23.913-12.237z" fill="url(#a)"/><path d="m30.701 17.894c3.689-4.354 8.455-6.98 13.659-6.98 11.702 0 21.189 13.268 21.189 29.634s-9.487 29.634-21.189 29.634c-5.204 0-9.97-2.626-13.658-6.98 5.767 7.489 14.339 12.237 23.913 12.237 5.888 0 11.397-1.798 16.108-4.923 8.229-7.36 13.41-18.059 13.41-29.969 0-11.908-5.18-22.605-13.407-29.965-4.712-3.127-10.223-4.925-16.111-4.925-9.574 0-18.146 4.748-23.914 12.237z" fill="url(#b)"/><g fill="#030404" fill-rule="nonzero"><path d="m33.441 116.039c-3.478 0-6.308-3.11-6.308-6.934s2.83-6.934 6.308-6.934 6.308 3.11 6.308 6.934-2.83 6.934-6.308 6.934zm0-15.789c-2.441 0-4.545 1.15-5.97 2.973v-2.57h-1.944v22.347h1.944v-8.014c1.425 1.824 3.529 2.974 5.97 2.974 4.537 0 8.229-3.973 8.229-8.855 0-4.883-3.692-8.855-8.229-8.855z"/><path d="m11.783 116.575c-5.475 0-9.928-4.709-9.928-10.498 0-5.787 4.453-10.496 9.928-10.496 5.474 0 9.928 4.709 9.928 10.496 0 5.789-4.454 10.498-9.928 10.498zm0-22.85c-6.498 0-11.783 5.541-11.783 12.352 0 6.812 5.285 12.354 11.783 12.354 6.497 0 11.783-5.542 11.783-12.354 0-6.811-5.286-12.352-11.783-12.352z"/><path d="m68.878 100.318c-.671.029-1.302.205-1.893.52-1.245.663-2.106 1.674-2.657 2.962-.012.03-.027.06-.041.091-.006-.002-.011-.003-.017-.004v-3.096h-.002v-.031h-1.945v16.743h1.948v-8.787c0-1.235.193-2.238.598-3.218.374-.906.898-1.711 1.649-2.353.883-.757 1.894-1.081 3.054-.897.187.029.373.07.568.109.111-.554.375-1.259.487-1.821-.539-.151-1.243-.241-1.749-.218z"/><path d="m51.643 102.197c3.436 0 5.839 2.316 6.241 5.862h-12.466c.473-3.316 3.079-5.862 6.225-5.862zm0-1.921c-4.537 0-8.229 3.972-8.229 8.855 0 4.884 3.692 8.855 8.229 8.855 3.246 0 6.058-2.033 7.396-4.977l-1.675-.975c-1.002 2.376-3.187 4.032-5.721 4.032-3.286 0-5.991-2.78-6.278-6.312h14.485c.013-.206.022-.413.022-.623 0-5.214-3.383-8.855-8.229-8.855z"/><path d="m78.441 116.039c-3.479 0-6.308-3.11-6.308-6.934s2.829-6.934 6.308-6.934c3.477 0 6.307 3.11 6.307 6.934s-2.83 6.934-6.307 6.934zm5.968-15.386v2.57c-1.423-1.823-3.527-2.973-5.968-2.973-4.538 0-8.23 3.972-8.23 8.855 0 4.882 3.692 8.855 8.23 8.855 2.441 0 4.545-1.15 5.968-2.974v2.517h1.946v-16.85z"/></g></g></svg>

<?xml version="1.0" encoding="UTF-8" standalone="no"?>
<!DOCTYPE svg PUBLIC "-//W3C//DTD SVG 1.1//EN" "http://www.w3.org/Graphics/SVG/1.1/DTD/svg11.dtd">
<svg width="100%" height="100%" viewBox="0 0 560 400" version="1.1" xmlns="http://www.w3.org/2000/svg" xmlns:xlink="http://www.w3.org/1999/xlink" xml:space="preserve" xmlns:serif="http://www.serif.com/" style="fill-rule:evenodd;clip-rule:evenodd;stroke-linejoin:round;stroke-miterlimit:2;">
    <rect x="0" y="0" width="560" height="400" style="fill:none;"/>
    <g>
        <g transform="matrix(1.88339,0,0,1.88339,198.68,83.8427)">
            <g>
                <path d="M30.702,63.202C26.258,57.956 23.379,50.199 23.183,41.495C23.182,41.472 23.182,39.624 23.183,39.601C23.379,30.897 26.258,23.141 30.701,17.894C36.469,10.405 45.041,5.657 54.615,5.657C60.503,5.657 66.014,7.455 70.726,10.582C63.65,4.25 54.319,0.388 44.086,0.35C44.035,0.35 43.985,0.349 43.934,0.349C21.732,0.349 3.735,18.346 3.735,40.547C3.735,62.106 20.707,79.701 42.019,80.7C42.654,80.73 43.292,80.747 43.934,80.747C54.226,80.747 63.612,76.877 70.723,70.516C66.012,73.641 60.503,75.439 54.615,75.439C45.041,75.439 36.469,70.691 30.702,63.202Z" style="fill:url(#_Linear1);"/>
                <path d="M30.701,17.894C34.39,13.54 39.156,10.914 44.36,10.914C56.062,10.914 65.549,24.182 65.549,40.548C65.549,56.914 56.062,70.182 44.36,70.182C39.156,70.182 34.39,67.556 30.702,63.202C36.469,70.691 45.041,75.439 54.615,75.439C60.503,75.439 66.012,73.641 70.723,70.516C78.952,63.156 84.133,52.457 84.133,40.547C84.133,28.639 78.953,17.942 70.726,10.582C66.014,7.455 60.503,5.657 54.615,5.657C45.041,5.657 36.469,10.405 30.701,17.894Z" style="fill:url(#_Linear2);"/>
                <path d="M33.441,116.039C29.963,116.039 27.133,112.929 27.133,109.105C27.133,105.281 29.963,102.171 33.441,102.171C36.919,102.171 39.749,105.281 39.749,109.105C39.749,112.929 36.919,116.039 33.441,116.039ZM33.441,100.25C31,100.25 28.896,101.4 27.471,103.223L27.471,100.653L25.527,100.653L25.527,123L27.471,123L27.471,114.986C28.896,116.81 31,117.96 33.441,117.96C37.978,117.96 41.67,113.987 41.67,109.105C41.67,104.222 37.978,100.25 33.441,100.25Z" style="fill:rgb(3,4,4);fill-rule:nonzero;"/>
                <path d="M11.783,116.575C6.308,116.575 1.855,111.866 1.855,106.077C1.855,100.29 6.308,95.581 11.783,95.581C17.257,95.581 21.711,100.29 21.711,106.077C21.711,111.866 17.257,116.575 11.783,116.575ZM11.783,93.725C5.285,93.725 0,99.266 0,106.077C0,112.889 5.285,118.431 11.783,118.431C18.28,118.431 23.566,112.889 23.566,106.077C23.566,99.266 18.28,93.725 11.783,93.725Z" style="fill:rgb(3,4,4);fill-rule:nonzero;"/>
                <path d="M68.878,100.318C68.207,100.347 67.576,100.523 66.985,100.838C65.74,101.501 64.879,102.512 64.328,103.8C64.316,103.83 64.301,103.86 64.287,103.891C64.281,103.889 64.276,103.888 64.27,103.887L64.27,100.791L64.268,100.791L64.268,100.76L62.323,100.76L62.323,117.503L64.271,117.503L64.271,108.716C64.271,107.481 64.464,106.478 64.869,105.498C65.243,104.592 65.767,103.787 66.518,103.145C67.401,102.388 68.412,102.064 69.572,102.248C69.759,102.277 69.945,102.318 70.14,102.357C70.251,101.803 70.515,101.098 70.627,100.536C70.088,100.385 69.384,100.295 68.878,100.318Z" style="fill:rgb(3,4,4);fill-rule:nonzero;"/>
                <path d="M51.643,102.197C55.079,102.197 57.482,104.513 57.884,108.059L45.418,108.059C45.891,104.743 48.497,102.197 51.643,102.197ZM51.643,100.276C47.106,100.276 43.414,104.248 43.414,109.131C43.414,114.015 47.106,117.986 51.643,117.986C54.889,117.986 57.701,115.953 59.039,113.009L57.364,112.034C56.362,114.41 54.177,116.066 51.643,116.066C48.357,116.066 45.652,113.286 45.365,109.754L59.85,109.754C59.863,109.548 59.872,109.341 59.872,109.131C59.872,103.917 56.489,100.276 51.643,100.276Z" style="fill:rgb(3,4,4);fill-rule:nonzero;"/>
                <path d="M78.441,116.039C74.962,116.039 72.133,112.929 72.133,109.105C72.133,105.281 74.962,102.171 78.441,102.171C81.918,102.171 84.748,105.281 84.748,109.105C84.748,112.929 81.918,116.039 78.441,116.039ZM84.409,100.653L84.409,103.223C82.986,101.4 80.882,100.25 78.441,100.25C73.903,100.25 70.211,104.222 70.211,109.105C70.211,113.987 73.903,117.96 78.441,117.96C80.882,117.96 82.986,116.81 84.409,114.986L84.409,117.503L86.355,117.503L86.355,100.653L84.409,100.653Z" style="fill:rgb(3,4,4);fill-rule:nonzero;"/>
            </g>
        </g>
    </g>
    <defs>
        <linearGradient id="_Linear1" x1="0" y1="0" x2="1" y2="0" gradientUnits="userSpaceOnUse" gradientTransform="matrix(4.77106e-16,77.9173,-77.9173,4.77106e-16,37.2308,1.65881)"><stop offset="0" style="stop-color:rgb(238,40,52);stop-opacity:1"/><stop offset="0.6" style="stop-color:rgb(237,28,42);stop-opacity:1"/><stop offset="0.9" style="stop-color:rgb(189,32,37);stop-opacity:1"/><stop offset="1" style="stop-color:rgb(166,30,34);stop-opacity:1"/></linearGradient>
        <linearGradient id="_Linear2" x1="0" y1="0" x2="1" y2="0" gradientUnits="userSpaceOnUse" gradientTransform="matrix(4.21977e-16,68.914,-68.914,4.21977e-16,57.4176,6.25129)"><stop offset="0" style="stop-color:rgb(155,27,31);stop-opacity:1"/><stop offset="0.3" style="stop-color:rgb(199,34,38);stop-opacity:1"/><stop offset="0.6" style="stop-color:rgb(239,64,66);stop-opacity:1"/><stop offset="0.7" style="stop-color:rgb(240,77,79);stop-opacity:1"/><stop offset="1" style="stop-color:rgb(240,77,79);stop-opacity:1"/></linearGradient>
    </defs>
</svg>
